icons/src/scalable/emblems/adaptive-symbolic.svg

<?xml version="1.0" encoding="UTF-8" standalone="no"?>
<svg
   width="64"
   height="64"
   version="1.1"
   id="svg8"
   sodipodi:docname="adaptive-symbolic.svg"
   inkscape:version="1.1 (c68e22c387, 2021-05-23)"
   xmlns:inkscape="http://www.inkscape.org/namespaces/inkscape"
   xmlns:sodipodi="http://sodipodi.sourceforge.net/DTD/sodipodi-0.dtd"
   xmlns="http://www.w3.org/2000/svg"
   xmlns:svg="http://www.w3.org/2000/svg">
  <sodipodi:namedview
     id="namedview12"
     pagecolor="#ffffff"
     bordercolor="#666666"
     borderopacity="1.0"
     objecttolerance="10.0"
     gridtolerance="10.0"
     guidetolerance="10.0"
     inkscape:pageshadow="2"
     inkscape:pageopacity="0.0"
     inkscape:pagecheckerboard="0"
     showgrid="false"
     inkscape:zoom="7.2111616"
     inkscape:cx="30.092239"
     inkscape:cy="37.927315"
     inkscape:window-width="1366"
     inkscape:window-height="704"
     inkscape:window-x="0"
     inkscape:window-y="27"
     inkscape:window-maximized="1"
     inkscape:current-layer="svg8">
    <inkscape:grid
       type="xygrid"
       id="grid828" />
  </sodipodi:namedview>
  <defs
     id="defs12" />
  <g
     transform="translate(-291,-94)"
     fill="#808080"
     id="g8-3">
    <path
       id="path2-6"
       style="line-height:normal;font-variant-ligatures:normal;font-variant-position:normal;font-variant-caps:normal;font-variant-numeric:normal;font-variant-alternates:normal;font-feature-settings:normal;text-indent:0;text-align:start;text-decoration-line:none;text-decoration-style:solid;text-decoration-color:#000000;text-transform:none;text-orientation:mixed;shape-padding:0;isolation:auto;mix-blend-mode:normal;marker:none"
       d="M 24.994141 26 C 23.736141 26.015 22.8155 25.96977 22.0625 26.384766 C 21.673147 26.606915 21.375986 26.960876 21.224609 27.382812 C 21.059609 27.820815 21 28.343 21 29 L 21 36 L 21 37 L 22 37 L 36 37 L 37 37 L 37 36 L 37 29 C 37 28.342 36.940391 27.820812 36.775391 27.382812 C 36.624014 26.960876 36.326853 26.606915 35.9375 26.384766 C 35.1845 25.968766 34.263859 26.015 33.005859 26 L 24.998047 26 L 24.994141 26 z M 25 27 L 33 27 C 34.259 27.015 35.087125 27.05972 35.453125 27.261719 C 35.637125 27.361719 35.742844 27.474375 35.839844 27.734375 C 35.936844 27.994375 36 28.408 36 29 L 36 36 L 22 36 L 22 29 C 22 28.408 22.06316 27.994375 22.160156 27.734375 C 22.258156 27.474375 22.361922 27.362719 22.544922 27.261719 C 22.910922 27.059719 23.741 27.015 25 27 z M 20 38 C 20 39.108 20.892 40 22 40 L 36 40 C 37.108 40 38 39.108 38 38 L 20 38 z "
       transform="translate(291,94)" />
  </g>
  <path
     id="rect3959"
     style="fill:#808080;fill-opacity:1;stroke-width:0.663973"
     d="m 8,25 c -1.108,0 -2,0.892 -2,2 v 11 c 0,1.108 0.892,2 2,2 h 5 c 1.108,0 2,-0.892 2,-2 V 27 c 0,-1.108 -0.892,-2 -2,-2 H 12 9 Z m 0,1 c 0,0.554 0.446,1 1,1 h 3 c 0.554,0 1,-0.446 1,-1 0.554,0 1,0.446 1,1 v 11 c 0,0.554 -0.446,1 -1,1 H 8 C 7.446,39 7,38.554 7,38 V 27 c 0,-0.554 0.446,-1 1,-1 z" />
  <path
     id="path2"
     style="line-height:normal;font-variant-ligatures:normal;font-variant-position:normal;font-variant-caps:normal;font-variant-numeric:normal;font-variant-alternates:normal;font-feature-settings:normal;text-indent:0;text-align:start;text-decoration-line:none;text-decoration-style:solid;text-decoration-color:#000000;text-transform:none;text-orientation:mixed;shape-padding:0;isolation:auto;mix-blend-mode:normal;marker:none;fill:#808080;fill-opacity:1"
     d="m 45.994141,25 c -1.258,0.015 -2.178641,-0.03023 -2.931641,0.384766 -0.389353,0.222149 -0.686514,0.57611 -0.837891,0.998046 C 42.059609,26.820813 42,27.343 42,28 v 6 c 0,0.658 0.05961,1.179184 0.224609,1.617188 0.164,0.438995 0.461891,0.790046 0.837891,0.998046 0.753,0.416 1.673641,0.369766 2.931641,0.384766 h 8.011718 c 1.258,-0.015 2.178641,0.03023 2.931641,-0.384766 0.389353,-0.222149 0.686514,-0.576112 0.837891,-0.998046 C 57.939391,35.179187 58,34.657 58,34 V 28 C 58,27.342 57.94039,26.820813 57.775391,26.382812 57.624014,25.960876 57.326853,25.606915 56.9375,25.384766 56.1845,24.968766 55.263859,25.015 54.005859,25 h -8.007812 z m 0.0059,1 h 8 c 1.259,0.015 2.087125,0.05972 2.453125,0.261719 0.184,0.1 0.289719,0.212656 0.386719,0.472656 0.097,0.26 0.160156,0.673625 0.160156,1.265625 v 6 c 0,0.592 -0.06316,1.005625 -0.160156,1.265625 -0.098,0.26 -0.202719,0.371656 -0.386719,0.472656 -0.366,0.202 -1.194125,0.246719 -2.453125,0.261719 h -8 c -1.259,-0.015 -2.090078,-0.05972 -2.455078,-0.261719 -0.183,-0.1 -0.286766,-0.212656 -0.384766,-0.472656 C 43.063197,35.005625 43.000041,34.592 43.000041,34 v -6 c 0,-0.592 0.06316,-1.005625 0.160156,-1.265625 0.098,-0.26 0.201766,-0.371656 0.384766,-0.472656 0.366,-0.202 1.196078,-0.246719 2.455078,-0.261719 z m 0,12 c -1.108,0 -2,0.892 -2,2 h 1 2 9 c 0,-1.108 -0.892,-2 -2,-2 z" />
</svg>

<svg version="1.1" viewBox="0 0 64 64" xmlns="http://www.w3.org/2000/svg">
 <g fill="#808080">
  <path d="m24.994 26c-1.258 0.015-2.1786-0.03023-2.9316 0.38477-0.38935 0.22215-0.68651 0.57611-0.83789 0.99805-0.165 0.438-0.22461 0.96019-0.22461 1.6172v7 1h1 14 1v-1-7c0-0.658-0.05961-1.1792-0.22461-1.6172-0.15138-0.42194-0.44854-0.7759-0.83789-0.99805-0.753-0.416-1.6736-0.36977-2.9316-0.38477h-8.0078zm0.0059 1h8c1.259 0.015 2.0871 0.05972 2.4531 0.26172 0.184 0.1 0.28972 0.21266 0.38672 0.47266s0.16016 0.67362 0.16016 1.2656v7h-14v-7c0-0.592 0.06316-1.0056 0.16016-1.2656 0.098-0.26 0.20177-0.37166 0.38477-0.47266 0.366-0.202 1.1961-0.24672 2.4551-0.26172zm-5 11c0 1.108 0.892 2 2 2h14c1.108 0 2-0.892 2-2z" style="font-feature-settings:normal;font-variant-alternates:normal;font-variant-caps:normal;font-variant-ligatures:normal;font-variant-numeric:normal;font-variant-position:normal;isolation:auto;mix-blend-mode:normal;shape-padding:0;text-decoration-color:#000000;text-decoration-line:none;text-decoration-style:solid;text-indent:0;text-orientation:mixed;text-transform:none"/>
  <path d="m8 25c-1.108 0-2 0.892-2 2v11c0 1.108 0.892 2 2 2h5c1.108 0 2-0.892 2-2v-11c0-1.108-0.892-2-2-2h-4zm0 1c0 0.554 0.446 1 1 1h3c0.554 0 1-0.446 1-1 0.554 0 1 0.446 1 1v11c0 0.554-0.446 1-1 1h-5c-0.554 0-1-0.446-1-1v-11c0-0.554 0.446-1 1-1z" stroke-width=".66397"/>
  <path d="m45.994 25c-1.258 0.015-2.1786-0.03023-2.9316 0.38477-0.38935 0.22215-0.68651 0.57611-0.83789 0.99805-0.165 0.438-0.22461 0.96019-0.22461 1.6172v6c0 0.658 0.05961 1.1792 0.22461 1.6172 0.164 0.439 0.46189 0.79005 0.83789 0.99805 0.753 0.416 1.6736 0.36977 2.9316 0.38477h8.0117c1.258-0.015 2.1786 0.03023 2.9316-0.38477 0.38935-0.22215 0.68651-0.57611 0.83789-0.99805 0.164-0.438 0.22461-0.96019 0.22461-1.6172v-6c0-0.658-0.05961-1.1792-0.22461-1.6172-0.15138-0.42194-0.44854-0.7759-0.83789-0.99805-0.753-0.416-1.6736-0.36977-2.9316-0.38477h-8.0078zm0.0059 1h8c1.259 0.015 2.0871 0.05972 2.4531 0.26172 0.184 0.1 0.28972 0.21266 0.38672 0.47266s0.16016 0.67362 0.16016 1.2656v6c0 0.592-0.06316 1.0056-0.16016 1.2656-0.098 0.26-0.20272 0.37166-0.38672 0.47266-0.366 0.202-1.1941 0.24672-2.4531 0.26172h-8c-1.259-0.015-2.0901-0.05972-2.4551-0.26172-0.183-0.1-0.28677-0.21266-0.38477-0.47266-0.097-0.26-0.16016-0.67362-0.16016-1.2656v-6c0-0.592 0.06316-1.0056 0.16016-1.2656 0.098-0.26 0.20177-0.37166 0.38477-0.47266 0.366-0.202 1.1961-0.24672 2.4551-0.26172zm0 12c-1.108 0-2 0.892-2 2h1 2 9c0-1.108-0.892-2-2-2z" style="font-feature-settings:normal;font-variant-alternates:normal;font-variant-caps:normal;font-variant-ligatures:normal;font-variant-numeric:normal;font-variant-position:normal;isolation:auto;mix-blend-mode:normal;shape-padding:0;text-decoration-color:#000000;text-decoration-line:none;text-decoration-style:solid;text-indent:0;text-orientation:mixed;text-transform:none"/>
 </g>
</svg>
